Numix-Circle/48x48/apps/cool-retro-term.svg

<?xml version="1.0" encoding="UTF-8" standalone="no"?>
<svg
   xmlns:dc="http://purl.org/dc/elements/1.1/"
   xmlns:cc="http://creativecommons.org/ns#"
   xmlns:rdf="http://www.w3.org/1999/02/22-rdf-syntax-ns#"
   xmlns:svg="http://www.w3.org/2000/svg"
   xmlns="http://www.w3.org/2000/svg"
   xmlns:sodipodi="http://sodipodi.sourceforge.net/DTD/sodipodi-0.dtd"
   xmlns:inkscape="http://www.inkscape.org/namespaces/inkscape"
   viewBox="0 0 48 48"
   id="svg2"
   version="1.1"
   inkscape:version="0.91 r13725"
   sodipodi:docname="cool-retro-term.svg">
  <metadata
     id="metadata54">
    <rdf:RDF>
      <cc:Work
         rdf:about="">
        <dc:format>image/svg+xml</dc:format>
        <dc:type
           rdf:resource="http://purl.org/dc/dcmitype/StillImage" />
        <dc:title></dc:title>
      </cc:Work>
    </rdf:RDF>
  </metadata>
  <sodipodi:namedview
     pagecolor="#ffffff"
     bordercolor="#666666"
     borderopacity="1"
     objecttolerance="10"
     gridtolerance="10"
     guidetolerance="10"
     inkscape:pageopacity="0"
     inkscape:pageshadow="2"
     inkscape:window-width="1280"
     inkscape:window-height="773"
     id="namedview52"
     showgrid="true"
     inkscape:zoom="11.354167"
     inkscape:cx="24"
     inkscape:cy="24"
     inkscape:window-x="0"
     inkscape:window-y="27"
     inkscape:window-maximized="1"
     inkscape:current-layer="svg2"
     showguides="false">
    <inkscape:grid
       type="xygrid"
       id="grid4201" />
  </sodipodi:namedview>
  <defs
     id="defs4">
    <linearGradient
       id="linearGradient3046"
       y1="1"
       x2="0"
       y2="47"
       gradientUnits="userSpaceOnUse">
      <stop
         style="stop-color:#5c4e42;stop-opacity:1"
         id="stop7" />
      <stop
         offset="1"
         style="stop-color:#50443a;stop-opacity:1"
         id="stop9" />
    </linearGradient>
  </defs>
  <g
     id="g16">
    <path
       d="m 36.31 5 c 5.859 4.062 9.688 10.831 9.688 18.5 c 0 12.426 -10.07 22.5 -22.5 22.5 c -7.669 0 -14.438 -3.828 -18.5 -9.688 c 1.037 1.822 2.306 3.499 3.781 4.969 c 4.085 3.712 9.514 5.969 15.469 5.969 c 12.703 0 23 -10.298 23 -23 c 0 -5.954 -2.256 -11.384 -5.969 -15.469 c -1.469 -1.475 -3.147 -2.744 -4.969 -3.781 z m 4.969 3.781 c 3.854 4.113 6.219 9.637 6.219 15.719 c 0 12.703 -10.297 23 -23 23 c -6.081 0 -11.606 -2.364 -15.719 -6.219 c 4.16 4.144 9.883 6.719 16.219 6.719 c 12.703 0 23 -10.298 23 -23 c 0 -6.335 -2.575 -12.06 -6.719 -16.219 z"
       style="opacity:0.05"
       id="path18" />
    <path
       d="m 41.28 8.781 c 3.712 4.085 5.969 9.514 5.969 15.469 c 0 12.703 -10.297 23 -23 23 c -5.954 0 -11.384 -2.256 -15.469 -5.969 c 4.113 3.854 9.637 6.219 15.719 6.219 c 12.703 0 23 -10.298 23 -23 c 0 -6.081 -2.364 -11.606 -6.219 -15.719 z"
       style="opacity:0.1"
       id="path20" />
    <path
       d="m 31.25 2.375 c 8.615 3.154 14.75 11.417 14.75 21.13 c 0 12.426 -10.07 22.5 -22.5 22.5 c -9.708 0 -17.971 -6.135 -21.12 -14.75 a 23 23 0 0 0 44.875 -7 a 23 23 0 0 0 -16 -21.875 z"
       style="opacity:0.2"
       id="path22" />
  </g>
  <g
     style="fill:#fea"
     id="g24">
    <path
       d="m 24 1 c 12.703 0 23 10.297 23 23 c 0 12.703 -10.297 23 -23 23 -12.703 0 -23 -10.297 -23 -23 0 -12.703 10.297 -23 23 -23 z"
       style="fill:url(#linearGradient3046);fill-opacity:1"
       id="path26" />
  </g>
  <g
     id="g4202"
     style="fill:#3e2e26;fill-opacity:1;stroke:none">
    <path
       sodipodi:nodetypes="ccccc"
       inkscape:connector-curvature="0"
       d="M 1.0273437,23 46.979,23 46.994375,24 1,24 Z"
       style="fill:#3e2e26;fill-opacity:1;stroke:none"
       id="path30" />
    <path
       inkscape:connector-curvature="0"
       d="m 1.367,20 45.28,0 0.157187,1 L 1.198,21 Z"
       style="fill:#3e2e26;fill-opacity:1;stroke:none"
       id="path32"
       sodipodi:nodetypes="ccccc" />
    <path
       sodipodi:nodetypes="ccccc"
       inkscape:connector-curvature="0"
       d="M 1.0952812,26 46.907625,26 46.803375,27 1.196,27 Z"
       style="fill:#3e2e26;fill-opacity:1;stroke:none"
       id="path34" />
    <path
       sodipodi:nodetypes="ccccc"
       inkscape:connector-curvature="0"
       d="M 2.0969375,17 45.906,17 46.205187,18 1.8034688,18 Z"
       style="fill:#3e2e26;fill-opacity:1;stroke:none"
       id="path36" />
    <path
       sodipodi:nodetypes="ccccc"
       inkscape:connector-curvature="0"
       d="m 1.551375,29 44.898812,0 -0.241281,1 -44.4056248,0 z"
       style="fill:#3e2e26;fill-opacity:1;stroke:none"
       id="path38" />
    <path
       sodipodi:nodetypes="ccccc"
       id="path36-2"
       style="fill:#3e2e26;fill-opacity:1;stroke:none"
       d="M 3.29,14 44.712187,14 45.17,15 2.8382813,15 Z"
       inkscape:connector-curvature="0" />
    <path
       sodipodi:nodetypes="ccccc"
       id="path36-2-8"
       style="fill:#3e2e26;fill-opacity:1;stroke:none"
       d="m 5.0329687,11 37.9214063,0 0.657031,1 -39.233281,0 z"
       inkscape:connector-curvature="0" />
    <path
       sodipodi:nodetypes="ccccc"
       id="path36-2-6"
       style="fill:#3e2e26;fill-opacity:1;stroke:none"
       d="M 7.4876562,8 40.48875,8 41.419219,9 6.575,9 Z"
       inkscape:connector-curvature="0" />
    <path
       sodipodi:nodetypes="ccccc"
       id="path36-2-60"
       style="fill:#3e2e26;fill-opacity:1;stroke:none"
       d="M 11.039219,5 36.96375,5 38.308281,6 9.68125,6 Z"
       inkscape:connector-curvature="0" />
    <path
       sodipodi:nodetypes="ccccc"
       id="path36-2-60-9"
       style="fill:#3e2e26;fill-opacity:1;stroke:none"
       d="M 17.2775,2 30.746562,2 33.387969,3 14.603125,3 Z"
       inkscape:connector-curvature="0" />
    <path
       sodipodi:nodetypes="ccccc"
       id="path36-2-60-7"
       style="fill:#3e2e26;fill-opacity:1;stroke:none"
       d="M 2.4329688,32 45.57,32 45.172344,33 2.8367188,33 Z"
       inkscape:connector-curvature="0" />
    <path
       sodipodi:nodetypes="ccccc"
       id="path36-2-60-6"
       style="fill:#3e2e26;fill-opacity:1;stroke:none"
       d="M 3.8126563,35 44.195,35 43.621563,36 4.3882812,36 Z"
       inkscape:connector-curvature="0" />
    <path
       sodipodi:nodetypes="ccccc"
       id="path36-2-60-5"
       style="fill:#3e2e26;fill-opacity:1;stroke:none"
       d="M 5.7571875,38 42.245781,38 41.42625,39 6.5789063,39 Z"
       inkscape:connector-curvature="0" />
    <path
       sodipodi:nodetypes="ccccc"
       id="path36-2-60-53"
       style="fill:#3e2e26;fill-opacity:1;stroke:none"
       d="M 8.5423438,41 39.491094,41 38.312187,42 9.7117188,42 Z"
       inkscape:connector-curvature="0" />
    <path
       sodipodi:nodetypes="ccccc"
       id="path36-2-60-54"
       style="fill:#3e2e26;fill-opacity:1;stroke:none"
       d="m 12.662656,44 22.681563,0 -1.95625,1 -18.759063,0 z"
       inkscape:connector-curvature="0" />
  </g>
  <g
     id="g4202-0"
     style="opacity:1;fill:#4c4137;fill-opacity:1"
     transform="translate(1,1)">
    <path
       sodipodi:nodetypes="ccccc"
       inkscape:connector-curvature="0"
       d="m 0.0039062,23 45.9907188,0 -0.01588,1 -45.9475,0 z"
       style="fill:#4c4137;fill-opacity:1;stroke:none"
       id="path30-3" />
    <path
       inkscape:connector-curvature="0"
       d="M 0.19903125,20 45.80325,20 45.90575,21 0.088625,21 Z"
       style="fill:#4c4137;fill-opacity:1;stroke:none"
       id="path32-2"
       sodipodi:nodetypes="ccccc" />
    <path
       sodipodi:nodetypes="ccccc"
       inkscape:connector-curvature="0"
       d="M 0.20074995,26 45.802156,26 45.647125,27 0.35615625,27 Z"
       style="fill:#4c4137;fill-opacity:1;stroke:none"
       id="path34-5" />
    <path
       sodipodi:nodetypes="ccccc"
       inkscape:connector-curvature="0"
       d="m 0.8000625,17 44.4028125,0 0.248406,1 -44.89390595,0 z"
       style="fill:#4c4137;fill-opacity:1;stroke:none"
       id="path36-1" />
    <path
       sodipodi:nodetypes="ccccc"
       inkscape:connector-curvature="0"
       d="M 0.79746875,29 45.211905,29 44.912031,30 1.0884375,30 Z"
       style="fill:#4c4137;fill-opacity:1;stroke:none"
       id="path38-6" />
    <path
       sodipodi:nodetypes="ccccc"
       id="path36-2-7"
       style="fill:#4c4137;fill-opacity:1;stroke:none"
       d="m 1.8329687,14 42.3362503,0 0.395312,1 -43.1285934,0 z"
       inkscape:connector-curvature="0" />
    <path
       sodipodi:nodetypes="ccccc"
       id="path36-2-8-8"
       style="fill:#4c4137;fill-opacity:1;stroke:none"
       d="m 3.3767187,11 39.2300003,0 0.590625,1 -40.4012502,0 z"
       inkscape:connector-curvature="0" />
    <path
       sodipodi:nodetypes="ccccc"
       id="path36-2-6-5"
       style="fill:#4c4137;fill-opacity:1;stroke:none"
       d="M 5.5696874,8 40.422344,8 41.231719,9.0019531 4.7625,8.9980469 Z"
       inkscape:connector-curvature="0" />
    <path
       sodipodi:nodetypes="ccccc"
       id="path36-2-60-4"
       style="fill:#4c4137;fill-opacity:1;stroke:none"
       d="M 8.6915627,5 37.315312,5 38.487968,6 7.5171875,6 Z"
       inkscape:connector-curvature="0" />
    <path
       sodipodi:nodetypes="ccccc"
       id="path36-2-60-9-7"
       style="fill:#4c4137;fill-opacity:1;stroke:none"
       d="M 13.609531,2 32.391093,2 34.360625,3 11.642188,3 Z"
       inkscape:connector-curvature="0" />
    <path
       sodipodi:nodetypes="ccccc"
       id="path36-2-60-7-3"
       style="fill:#4c4137;fill-opacity:1;stroke:none"
       d="M 1.8392188,32 44.171562,32 43.723125,33 2.2937501,33 Z"
       inkscape:connector-curvature="0" />
    <path
       sodipodi:nodetypes="ccccc"
       id="path36-2-60-6-5"
       style="fill:#4c4137;fill-opacity:1;stroke:none"
       d="M 3.3907813,35 42.620781,35 41.973126,36 4.0367187,36 Z"
       inkscape:connector-curvature="0" />
    <path
       sodipodi:nodetypes="ccccc"
       id="path36-2-60-5-3"
       style="fill:#4c4137;fill-opacity:1;stroke:none"
       d="M 5.5735937,38 40.433281,38 39.516094,39 6.4851563,39 Z"
       inkscape:connector-curvature="0" />
    <path
       sodipodi:nodetypes="ccccc"
       id="path36-2-60-53-3"
       style="fill:#4c4137;fill-opacity:1;stroke:none"
       d="m 8.7142188,41 28.6010942,0 -1.366407,1 -25.877812,0 z"
       inkscape:connector-curvature="0" />
    <path
       sodipodi:nodetypes="ccccc"
       id="path36-2-60-54-3"
       style="fill:#4c4137;fill-opacity:1;stroke:none"
       d="m 13.623825,44 18.747738,0 -2.655469,1 -13.416975,5.5e-5 z"
       inkscape:connector-curvature="0" />
  </g>
  <g
     id="g40">
    <path
       d="m 40.03 7.531 c 3.712 4.084 5.969 9.514 5.969 15.469 0 12.703 -10.297 23 -23 23 c -5.954 0 -11.384 -2.256 -15.469 -5.969 4.178 4.291 10.01 6.969 16.469 6.969 c 12.703 0 23 -10.298 23 -23 0 -6.462 -2.677 -12.291 -6.969 -16.469 z"
       style="opacity:0.1"
       id="path42" />
  </g>
  <g
     id="g4187-2"
     style="opacity:0.1;fill:#000000;fill-opacity:1"
     transform="translate(1,0)">
    <g
       style="fill:#000000;fill-opacity:1"
       transform="translate(0,3)"
       id="g4208-1">
      <path
         style="fill:#000000;fill-opacity:1;fill-rule:evenodd;stroke:none;stroke-width:1px;stroke-linecap:butt;stroke-linejoin:miter;stroke-opacity:1"
         d="m 11,12 0,10 8,0 0,-3 -5,0 0,-4 5,0 0,-3 -8,0 z"
         id="path4182-9"
         inkscape:connector-curvature="0" />
      <path
         id="path4188-1"
         transform="translate(0,-3)"
         d="m 20,15 0,10 3,0 0,-4 1,0 2,4 3,0 -2.5,-5 1.5,0 0,-5 z m 3,2 2,0 0,2 -2,0 z"
         style="fill:#000000;fill-opacity:1;fill-rule:evenodd;stroke:none;stroke-width:1px;stroke-linecap:butt;stroke-linejoin:miter;stroke-opacity:1"
         inkscape:connector-curvature="0"
         sodipodi:nodetypes="cccccccccccccccc" />
      <path
         style="fill:#000000;fill-opacity:1;fill-rule:evenodd;stroke:none;stroke-width:1px;stroke-linecap:butt;stroke-linejoin:miter;stroke-opacity:1"
         d="m 29,12 0,3 3,0 0,7 3,0 0,-7 3,0 0,-3 z"
         id="path4206-7"
         inkscape:connector-curvature="0" />
    </g>
    <path
       inkscape:connector-curvature="0"
       id="path4185-1"
       d="m 11,27 0,10 8,0 0,-10 z"
       style="fill:#000000;fill-opacity:1;fill-rule:evenodd;stroke:none;stroke-width:1px;stroke-linecap:butt;stroke-linejoin:miter;stroke-opacity:1" />
  </g>
  <g
     id="g4187"
     style="fill:#f9b807;fill-opacity:1"
     transform="translate(0,-1)">
    <g
       style="fill:#f9b807;fill-opacity:1"
       transform="translate(0,3)"
       id="g4208">
      <path
         style="fill:#f9b807;fill-opacity:1;fill-rule:evenodd;stroke:none;stroke-width:1px;stroke-linecap:butt;stroke-linejoin:miter;stroke-opacity:1"
         d="m 11,12 0,10 8,0 0,-3 -5,0 0,-4 5,0 0,-3 -8,0 z"
         id="path4182"
         inkscape:connector-curvature="0" />
      <path
         id="path4188"
         transform="translate(0,-3)"
         d="m 20,15 0,10 3,0 0,-4 1,0 2,4 3,0 -2.5,-5 1.5,0 0,-5 z m 3,2 2,0 0,2 -2,0 z"
         style="fill:#f9b807;fill-opacity:1;fill-rule:evenodd;stroke:none;stroke-width:1px;stroke-linecap:butt;stroke-linejoin:miter;stroke-opacity:1"
         inkscape:connector-curvature="0"
         sodipodi:nodetypes="cccccccccccccccc" />
      <path
         style="fill:#f9b807;fill-opacity:1;fill-rule:evenodd;stroke:none;stroke-width:1px;stroke-linecap:butt;stroke-linejoin:miter;stroke-opacity:1"
         d="m 29,12 0,3 3,0 0,7 3,0 0,-7 3,0 0,-3 z"
         id="path4206"
         inkscape:connector-curvature="0" />
    </g>
    <path
       inkscape:connector-curvature="0"
       id="path4185"
       d="m 11,27 0,10 8,0 0,-10 z"
       style="fill:#f9b807;fill-opacity:1;fill-rule:evenodd;stroke:none;stroke-width:1px;stroke-linecap:butt;stroke-linejoin:miter;stroke-opacity:1" />
  </g>
  <path
     inkscape:connector-curvature="0"
     style="opacity:1;fill:#f88d06;fill-opacity:1"
     d="m 11,14 8,0 0,1 -8,0 z"
     id="rect4201" />
  <path
     inkscape:connector-curvature="0"
     style="opacity:1;fill:#f88d06;fill-opacity:1"
     d="m 20,14 8,0 0,1 -8,0 z"
     id="rect4204" />
  <rect
     style="opacity:1;fill:#f88d06;fill-opacity:1"
     id="rect4207"
     width="9"
     height="1"
     x="29"
     y="14" />
  <path
     inkscape:connector-curvature="0"
     style="opacity:1;fill:#f88d06;fill-opacity:1;stroke:none"
     d="m 11,17 3,0 0,1 -3,0 z"
     id="rect4240" />
  <path
     inkscape:connector-curvature="0"
     style="opacity:1;fill:#f88d06;fill-opacity:1;stroke:none"
     d="m 20,17 3,0 0,1 -3,0 z"
     id="rect4243" />
  <path
     inkscape:connector-curvature="0"
     style="opacity:1;fill:#f88d06;fill-opacity:1;stroke:none"
     d="m 25,17 3,0 0,1 -3,0 z"
     id="rect4246" />
  <path
     inkscape:connector-curvature="0"
     style="opacity:1;fill:#f88d06;fill-opacity:1;stroke:none"
     d="m 32,17 3,0 0,1 -3,0 z"
     id="rect4249" />
  <path
     inkscape:connector-curvature="0"
     style="opacity:1;fill:#f88d06;fill-opacity:1;stroke:none"
     d="m 11,20 3,0 0,1 -3,0 z"
     id="rect4252" />
  <path
     inkscape:connector-curvature="0"
     style="opacity:1;fill:#f88d06;fill-opacity:1;stroke:none"
     d="m 20,20 3,0 0,1 -3,0 z"
     id="rect4255" />
  <path
     style="opacity:1;fill:#f88d06;fill-opacity:1;stroke:none"
     d="m 24,20 3,0 0.5,1 -3,0 z"
     id="rect4258"
     inkscape:connector-curvature="0"
     sodipodi:nodetypes="ccccc" />
  <path
     inkscape:connector-curvature="0"
     style="opacity:1;fill:#f88d06;fill-opacity:1;stroke:none"
     d="m 32,20 3,0 0,1 -3,0 z"
     id="rect4261" />
  <path
     inkscape:connector-curvature="0"
     style="opacity:1;fill:#f88d06;fill-opacity:1;stroke:none"
     d="m 11,23 8,0 0,1 -8,0 z"
     id="rect4264" />
  <path
     inkscape:connector-curvature="0"
     style="opacity:1;fill:#f88d06;fill-opacity:1;stroke:none"
     d="m 20,23 3,0 0,1 -3,0 z"
     id="rect4267" />
  <path
     style="opacity:1;fill:#f88d06;fill-opacity:1;stroke:none"
     d="m 25.5,23 3,0 0.5,1 -3,0 z"
     id="rect4270"
     inkscape:connector-curvature="0"
     sodipodi:nodetypes="ccccc" />
  <path
     inkscape:connector-curvature="0"
     style="opacity:1;fill:#f88d06;fill-opacity:1;stroke:none"
     d="m 32,23 3,0 0,1 -3,0 z"
     id="rect4273" />
  <path
     inkscape:connector-curvature="0"
     style="opacity:1;fill:#f88d06;fill-opacity:1;stroke:none"
     d="m 11,26 8,0 0,1 -8,0 z"
     id="rect4276" />
  <path
     inkscape:connector-curvature="0"
     style="opacity:1;fill:#f88d06;fill-opacity:1;stroke:none"
     d="m 11,29 8,0 0,1 -8,0 z"
     id="rect4279" />
  <path
     inkscape:connector-curvature="0"
     style="opacity:1;fill:#f88d06;fill-opacity:1;stroke:none"
     d="m 11,32 8,0 0,1 -8,0 z"
     id="rect4282" />
  <path
     inkscape:connector-curvature="0"
     style="opacity:1;fill:#f88d06;fill-opacity:1;stroke:none"
     d="m 11,35 8,0 0,1 -8,0 z"
     id="rect4287" />
</svg>

<svg xmlns="http://www.w3.org/2000/svg" viewBox="0 0 48 48">
 <defs>
  <linearGradient id="linearGradient3046" y1="1" x2="0" y2="47" gradientUnits="userSpaceOnUse">
   <stop style="stop-color:#5c4e42;stop-opacity:1"/>
   <stop offset="1" style="stop-color:#50443a;stop-opacity:1"/>
  </linearGradient>
 </defs>
 <g>
  <path d="m 36.31 5 c 5.859 4.062 9.688 10.831 9.688 18.5 c 0 12.426 -10.07 22.5 -22.5 22.5 c -7.669 0 -14.438 -3.828 -18.5 -9.688 c 1.037 1.822 2.306 3.499 3.781 4.969 c 4.085 3.712 9.514 5.969 15.469 5.969 c 12.703 0 23 -10.298 23 -23 c 0 -5.954 -2.256 -11.384 -5.969 -15.469 c -1.469 -1.475 -3.147 -2.744 -4.969 -3.781 z m 4.969 3.781 c 3.854 4.113 6.219 9.637 6.219 15.719 c 0 12.703 -10.297 23 -23 23 c -6.081 0 -11.606 -2.364 -15.719 -6.219 c 4.16 4.144 9.883 6.719 16.219 6.719 c 12.703 0 23 -10.298 23 -23 c 0 -6.335 -2.575 -12.06 -6.719 -16.219 z" style="opacity:0.05"/>
  <path d="m 41.28 8.781 c 3.712 4.085 5.969 9.514 5.969 15.469 c 0 12.703 -10.297 23 -23 23 c -5.954 0 -11.384 -2.256 -15.469 -5.969 c 4.113 3.854 9.637 6.219 15.719 6.219 c 12.703 0 23 -10.298 23 -23 c 0 -6.081 -2.364 -11.606 -6.219 -15.719 z" style="opacity:0.1"/>
  <path d="m 31.25 2.375 c 8.615 3.154 14.75 11.417 14.75 21.13 c 0 12.426 -10.07 22.5 -22.5 22.5 c -9.708 0 -17.971 -6.135 -21.12 -14.75 a 23 23 0 0 0 44.875 -7 a 23 23 0 0 0 -16 -21.875 z" style="opacity:0.2"/>
 </g>
 <g style="fill:#fea">
  <path d="m 24 1 c 12.703 0 23 10.297 23 23 c 0 12.703 -10.297 23 -23 23 -12.703 0 -23 -10.297 -23 -23 0 -12.703 10.297 -23 23 -23 z" style="fill:url(#linearGradient3046);fill-opacity:1"/>
 </g>
 <g style="fill:#3e2e26;fill-opacity:1;stroke:none">
  <path d="m 1.027 23 45.952 0 0.015 1 -45.994 0"/>
  <path d="m 1.367 20 45.28 0 0.157 1 l -45.606 0"/>
  <path d="m 1.095 26 45.812 0 -0.104 1 -45.607 0"/>
  <path d="m 2.097 17 43.809 0 0.299 1 -44.4 0"/>
  <path d="m 1.551 29 44.899 0 -0.241 1 -44.41 0 z"/>
  <path d="m 3.29 14 41.42 0 0.458 1 -42.33 0"/>
  <path d="m 5.03 11 37.921 0 0.657 1 -39.23 0 z"/>
  <path d="m 7.488 8 33 0 0.93 1 -34.844 0"/>
  <path d="m 11.04 5 25.925 0 1.345 1 -28.627 0"/>
  <path d="m 17.278 2 13.469 0 2.641 1 -18.785 0"/>
  <path d="m 2.433 32 43.14 0 -0.398 1 -42.34 0"/>
  <path d="m 3.813 35 40.38 0 -0.573 1 -39.23 0"/>
  <path d="m 5.757 38 36.489 0 -0.82 1 -34.847 0"/>
  <path d="m 8.542 41 30.949 0 -1.179 1 -28.6 0"/>
  <path d="m 12.663 44 22.682 0 -1.956 1 -18.759 0 z"/>
 </g>
 <g transform="translate(1,1)" style="fill:#4c4137;opacity:1;fill-opacity:1">
  <path d="m 0.004 23 45.991 0 -0.016 1 -45.948 0 z" style="stroke:none"/>
  <path d="m 0.199 20 45.604 0 0.102 1 -45.817 0" style="stroke:none"/>
  <path d="m 0.201 26 45.601 0 -0.155 1 -45.29 0" style="stroke:none"/>
  <path d="m 0.8 17 44.4 0 0.248 1 -44.894 0 z" style="stroke:none"/>
  <path d="m 0.797 29 44.41 0 -0.3 1 -43.824 0" style="stroke:none"/>
  <path d="m 1.833 14 42.34 0 0.395 1 -43.13 0 z" style="stroke:none"/>
  <path d="m 3.377 11 39.23 0 0.591 1 -40.4 0 z" style="stroke:none"/>
  <path d="m 5.57 8 34.853 0 0.809 1 -36.469 -0.004" style="stroke:none"/>
  <path d="m 8.692 5 28.624 0 1.173 1 -30.971 0" style="stroke:none"/>
  <path d="m 13.61 2 18.782 0 1.97 1 -22.718 0" style="stroke:none"/>
  <path d="m 1.839 32 42.33 0 -0.448 1 -41.43 0" style="stroke:none"/>
  <path d="m 3.391 35 39.23 0 -0.648 1 -37.936 0" style="stroke:none"/>
  <path d="m 5.574 38 34.86 0 -0.917 1 -33.03 0" style="stroke:none"/>
  <path d="m 8.714 41 28.601 0 -1.366 1 -25.878 0 z" style="stroke:none"/>
  <path d="m 13.624 44 18.748 0 -2.655 1 -13.417 0 z" style="stroke:none"/>
 </g>
 <g>
  <path d="m 40.03 7.531 c 3.712 4.084 5.969 9.514 5.969 15.469 0 12.703 -10.297 23 -23 23 c -5.954 0 -11.384 -2.256 -15.469 -5.969 4.178 4.291 10.01 6.969 16.469 6.969 c 12.703 0 23 -10.298 23 -23 0 -6.462 -2.677 -12.291 -6.969 -16.469 z" style="opacity:0.1"/>
 </g>
 <g transform="translate(1,0)" style="fill:#000;opacity:0.1;fill-opacity:1">
  <g transform="translate(0,3)">
   <path d="m 11 12 0 10 8 0 0 -3 -5 0 0 -4 5 0 0 -3 -8 0 z" style="stroke:none;fill-rule:evenodd"/>
   <path transform="translate(0,-3)" d="m 20 15 0 10 3 0 0 -4 1 0 2 4 3 0 -2.5 -5 1.5 0 0 -5 z m 3 2 2 0 0 2 -2 0 z" style="stroke:none;fill-rule:evenodd"/>
   <path d="m 29 12 0 3 3 0 0 7 3 0 0 -7 3 0 0 -3 z" style="stroke:none;fill-rule:evenodd"/>
  </g>
  <path d="m 11 27 0 10 8 0 0 -10 z" style="stroke:none;fill-rule:evenodd"/>
 </g>
 <g transform="translate(0,-1)" style="fill:#f9b807;fill-opacity:1">
  <g transform="translate(0,3)">
   <path d="m 11 12 0 10 8 0 0 -3 -5 0 0 -4 5 0 0 -3 -8 0 z" style="stroke:none;fill-rule:evenodd"/>
   <path transform="translate(0,-3)" d="m 20 15 0 10 3 0 0 -4 1 0 2 4 3 0 -2.5 -5 1.5 0 0 -5 z m 3 2 2 0 0 2 -2 0 z" style="stroke:none;fill-rule:evenodd"/>
   <path d="m 29 12 0 3 3 0 0 7 3 0 0 -7 3 0 0 -3 z" style="stroke:none;fill-rule:evenodd"/>
  </g>
  <path d="m 11 27 0 10 8 0 0 -10 z" style="stroke:none;fill-rule:evenodd"/>
 </g>
 <path d="m 11 14 8 0 0 1 -8 0 z" style="fill:#f88d06;opacity:1;fill-opacity:1"/>
 <path d="m 20 14 8 0 0 1 -8 0 z" style="fill:#f88d06;opacity:1;fill-opacity:1"/>
 <rect width="9" height="1" x="29" y="14" style="fill:#f88d06;opacity:1;fill-opacity:1"/>
 <path d="m 11 17 3 0 0 1 -3 0 z" style="fill:#f88d06;opacity:1;fill-opacity:1;stroke:none"/>
 <path d="m 20 17 3 0 0 1 -3 0 z" style="fill:#f88d06;opacity:1;fill-opacity:1;stroke:none"/>
 <path d="m 25 17 3 0 0 1 -3 0 z" style="fill:#f88d06;opacity:1;fill-opacity:1;stroke:none"/>
 <path d="m 32 17 3 0 0 1 -3 0 z" style="fill:#f88d06;opacity:1;fill-opacity:1;stroke:none"/>
 <path d="m 11 20 3 0 0 1 -3 0 z" style="fill:#f88d06;opacity:1;fill-opacity:1;stroke:none"/>
 <path d="m 20 20 3 0 0 1 -3 0 z" style="fill:#f88d06;opacity:1;fill-opacity:1;stroke:none"/>
 <path d="m 24 20 3 0 0.5 1 -3 0 z" style="fill:#f88d06;opacity:1;fill-opacity:1;stroke:none"/>
 <path d="m 32 20 3 0 0 1 -3 0 z" style="fill:#f88d06;opacity:1;fill-opacity:1;stroke:none"/>
 <path d="m 11 23 8 0 0 1 -8 0 z" style="fill:#f88d06;opacity:1;fill-opacity:1;stroke:none"/>
 <path d="m 20 23 3 0 0 1 -3 0 z" style="fill:#f88d06;opacity:1;fill-opacity:1;stroke:none"/>
 <path d="m 25.5 23 3 0 0.5 1 -3 0 z" style="fill:#f88d06;opacity:1;fill-opacity:1;stroke:none"/>
 <path d="m 32 23 3 0 0 1 -3 0 z" style="fill:#f88d06;opacity:1;fill-opacity:1;stroke:none"/>
 <path d="m 11 26 8 0 0 1 -8 0 z" style="fill:#f88d06;opacity:1;fill-opacity:1;stroke:none"/>
 <path d="m 11 29 8 0 0 1 -8 0 z" style="fill:#f88d06;opacity:1;fill-opacity:1;stroke:none"/>
 <path d="m 11 32 8 0 0 1 -8 0 z" style="fill:#f88d06;opacity:1;fill-opacity:1;stroke:none"/>
 <path d="m 11 35 8 0 0 1 -8 0 z" style="fill:#f88d06;opacity:1;fill-opacity:1;stroke:none"/>
</svg>
